Newaita-dark/apps/32/qt4logo.svg

<?xml version="1.0" encoding="UTF-8"?>
<svg xmlns="http://www.w3.org/2000/svg" xmlns:xlink="http://www.w3.org/1999/xlink" width="32pt" height="32pt" viewBox="0 0 32 32" version="1.1">
<defs>
<radialGradient id="radial0" gradientUnits="userSpaceOnUse" cx="450.908936" cy="189.579361" fx="450.908936" fy="189.579361" r="21.166656" gradientTransform="matrix(0.00000017417,-0.0781325,-0.140638,-0.000000101539,44.523152,63.595329)">
<stop offset="0" style="stop-color:rgb(0%,0%,0%);stop-opacity:0.313725;"/>
<stop offset="0.222222" style="stop-color:rgb(0%,0%,0%);stop-opacity:0.27451;"/>
<stop offset="1" style="stop-color:rgb(0%,0%,0%);stop-opacity:0;"/>
</radialGradient>
<radialGradient id="radial1" gradientUnits="userSpaceOnUse" cx="450.908936" cy="189.579361" fx="450.908936" fy="189.579361" r="21.166656" gradientTransform="matrix(-0.00000017417,0.0781325,0.140638,0.000000101539,-12.770119,-7.527482)">
<stop offset="0" style="stop-color:rgb(0%,0%,0%);stop-opacity:0.313725;"/>
<stop offset="0.222222" style="stop-color:rgb(0%,0%,0%);stop-opacity:0.27451;"/>
<stop offset="1" style="stop-color:rgb(0%,0%,0%);stop-opacity:0;"/>
</radialGradient>
<radialGradient id="radial2" gradientUnits="userSpaceOnUse" cx="450.908936" cy="189.579361" fx="450.908936" fy="189.579361" r="21.166656" gradientTransform="matrix(-0.00000017417,-0.0781325,0.140638,-0.000000101539,-12.770119,63.595329)">
<stop offset="0" style="stop-color:rgb(0%,0%,0%);stop-opacity:0.313725;"/>
<stop offset="0.222222" style="stop-color:rgb(0%,0%,0%);stop-opacity:0.27451;"/>
<stop offset="1" style="stop-color:rgb(0%,0%,0%);stop-opacity:0;"/>
</radialGradient>
<radialGradient id="radial3" gradientUnits="userSpaceOnUse" cx="450.908936" cy="189.579361" fx="450.908936" fy="189.579361" r="21.166656" gradientTransform="matrix(0.00000017417,0.0781325,-0.140638,0.000000101539,44.52315,-7.527483)">
<stop offset="0" style="stop-color:rgb(0%,0%,0%);stop-opacity:0.313725;"/>
<stop offset="0.222222" style="stop-color:rgb(0%,0%,0%);stop-opacity:0.27451;"/>
<stop offset="1" style="stop-color:rgb(0%,0%,0%);stop-opacity:0;"/>
</radialGradient>
<linearGradient id="linear0" gradientUnits="userSpaceOnUse" x1="255.323059" y1="233.5" x2="255.323044" y2="254.666656" gradientTransform="matrix(0.0133601,0,0,0.062506,12.465386,13.438784)">
<stop offset="0" style="stop-color:rgb(0%,0%,0%);stop-opacity:0.27451;"/>
<stop offset="1" style="stop-color:rgb(0%,0%,0%);stop-opacity:0;"/>
</linearGradient>
<linearGradient id="linear1" gradientUnits="userSpaceOnUse" x1="254" y1="-168.666672" x2="254" y2="233.5" >
<stop offset="0" style="stop-color:rgb(40%,73.333333%,41.568627%);stop-opacity:1;"/>
<stop offset="1" style="stop-color:rgb(29.803922%,68.627451%,31.372549%);stop-opacity:1;"/>
</linearGradient>
<linearGradient id="linear2" gradientUnits="userSpaceOnUse" x1="195.791656" y1="0.666673" x2="195.791656" y2="148.833344" gradientTransform="matrix(1,0,0,1,5.291669,5.291905)">
<stop offset="0" style="stop-color:rgb(87.843137%,87.843137%,87.843137%);stop-opacity:1;"/>
<stop offset="1" style="stop-color:rgb(93.333333%,93.333333%,93.333333%);stop-opacity:1;"/>
</linearGradient>
<linearGradient id="linear3" gradientUnits="userSpaceOnUse" x1="280.458344" y1="-94.583321" x2="280.458344" y2="74.750008" gradientTransform="matrix(1,0,0,1,-5.291663,5.291897)">
<stop offset="0" style="stop-color:rgb(87.843137%,87.843137%,87.843137%);stop-opacity:1;"/>
<stop offset="1" style="stop-color:rgb(93.333333%,93.333333%,93.333333%);stop-opacity:1;"/>
</linearGradient>
</defs>
<g id="surface1">
<path style=" stroke:none;fill-rule:nonzero;fill:url(#radial0);" d="M 18.191406 28.035156 L 20.839844 28.035156 L 20.839844 26.710938 L 18.191406 26.710938 Z M 18.191406 28.035156 "/>
<path style=" stroke:none;fill-rule:nonzero;fill:url(#radial1);" d="M 13.5625 28.035156 L 10.914062 28.035156 L 10.914062 29.355469 L 13.5625 29.355469 Z M 13.5625 28.035156 "/>
<path style=" stroke:none;fill-rule:nonzero;fill:url(#radial2);" d="M 13.5625 28.035156 L 10.914062 28.035156 L 10.914062 26.710938 L 13.5625 26.710938 Z M 13.5625 28.035156 "/>
<path style=" stroke:none;fill-rule:nonzero;fill:url(#radial3);" d="M 18.191406 28.035156 L 20.839844 28.035156 L 20.839844 29.355469 L 18.191406 29.355469 Z M 18.191406 28.035156 "/>
<path style=" stroke:none;fill-rule:nonzero;fill:url(#linear0);" d="M 13.5625 27.703125 L 18.191406 27.703125 L 18.191406 29.355469 L 13.5625 29.355469 Z M 13.5625 27.703125 "/>
<path style="fill-rule:nonzero;fill:url(#linear1);stroke-width:3;stroke-linecap:round;stroke-linejoin:miter;stroke:rgb(20%,20%,20%);stroke-opacity:1;stroke-miterlimit:4;" d="M 253.975747 -168.691922 C 365.027642 -168.691922 455.081542 -78.638022 455.081542 32.413873 C 455.081542 143.465768 365.027642 233.519669 253.975747 233.519669 C 142.923851 233.519669 52.932445 143.465768 52.932445 32.413873 C 52.932445 -78.638022 142.923851 -168.691922 253.975747 -168.691922 Z M 253.975747 -168.691922 " transform="matrix(0.062506,0,0,0.062506,0,13.438783)"/>
<path style=" stroke:none;fill-rule:nonzero;fill:rgb(0%,0%,0%);fill-opacity:0.196078;" d="M 15.875 28.035156 C 8.914062 28.035156 3.308594 22.429688 3.308594 15.464844 C 3.308594 15.425781 3.308594 15.382812 3.308594 15.34375 C 3.375 22.246094 8.953125 27.789062 15.875 27.789062 C 22.796875 27.789062 28.378906 22.246094 28.445312 15.34375 C 28.445312 15.382812 28.445312 15.425781 28.445312 15.464844 C 28.445312 22.429688 22.839844 28.035156 15.875 28.035156 Z M 15.875 28.035156 "/>
<path style=" stroke:none;fill-rule:nonzero;fill:rgb(100%,100%,100%);fill-opacity:0.392157;" d="M 15.875 2.894531 C 8.914062 2.894531 3.308594 8.5 3.308594 15.464844 C 3.308594 15.507812 3.308594 15.546875 3.308594 15.589844 C 3.375 8.683594 8.953125 3.140625 15.875 3.140625 C 22.796875 3.140625 28.378906 8.683594 28.445312 15.589844 C 28.445312 15.546875 28.445312 15.507812 28.445312 15.464844 C 28.445312 8.5 22.839844 2.894531 15.875 2.894531 Z M 15.875 2.894531 "/>
<path style=" stroke:none;fill-rule:nonzero;fill:rgb(12.941177%,12.941177%,12.941177%);fill-opacity:1;" d="M 15.875 2.800781 C 8.863281 2.800781 3.214844 8.453125 3.214844 15.464844 C 3.214844 22.476562 8.863281 28.128906 15.875 28.128906 C 22.890625 28.128906 28.539062 22.476562 28.539062 15.464844 C 28.539062 8.453125 22.890625 2.800781 15.875 2.800781 Z M 15.875 2.988281 C 22.789062 2.988281 28.351562 8.550781 28.351562 15.464844 C 28.351562 22.378906 22.789062 27.941406 15.875 27.941406 C 8.964844 27.941406 3.402344 22.378906 3.402344 15.464844 C 3.402344 8.550781 8.964844 2.988281 15.875 2.988281 Z M 15.875 2.988281 "/>
<path style="fill-rule:nonzero;fill:url(#linear2);stroke-width:3;stroke-linecap:square;stroke-linejoin:bevel;stroke:rgb(12.941177%,12.941177%,12.941177%);stroke-opacity:1;stroke-miterlimit:4;" d="M 174.608326 5.978898 C 157.047503 5.978898 142.861357 20.102549 142.861357 37.725866 L 142.861357 48.287357 C 142.861357 65.910674 157.047503 80.034326 174.608326 80.034326 L 216.97928 80.034326 L 216.97928 143.528262 C 216.97928 149.402701 221.47885 154.152248 227.040819 154.152248 L 238.602215 154.152248 C 244.226678 154.152248 248.726248 149.402701 248.726248 143.528262 L 248.726248 37.725866 C 248.726248 20.102549 234.540103 5.978898 216.97928 5.978898 Z M 174.608326 5.978898 " transform="matrix(0.062506,0,0,0.062506,0,13.438783)"/>
<path style="fill-rule:nonzero;fill:url(#linear3);stroke-width:3;stroke-linecap:square;stroke-linejoin:bevel;stroke:rgb(12.941177%,12.941177%,12.941177%);stroke-opacity:1;stroke-miterlimit:4;" d="M 269.849231 -89.262007 C 264.037286 -89.262007 259.287739 -84.574955 259.287739 -78.700516 L 259.287739 -68.139025 L 238.102262 -68.139025 C 232.290317 -68.139025 227.540771 -63.389478 227.540771 -57.515039 L 227.540771 -46.953548 C 227.540771 -41.079109 232.290317 -36.392056 238.102262 -36.392056 L 259.287739 -36.392056 L 259.287739 48.287357 C 259.287739 65.910674 273.473885 80.034326 291.034708 80.034326 L 354.528644 80.034326 C 360.403083 80.034326 365.15263 75.347273 365.15263 69.472834 L 365.15263 58.848849 C 365.15263 53.036904 360.403083 48.287357 354.528644 48.287357 L 301.596199 48.287357 C 295.784254 48.287357 291.034708 43.600305 291.034708 37.725866 L 291.034708 -36.392056 L 312.220184 -36.392056 C 318.094623 -36.392056 322.781676 -41.079109 322.781676 -46.953548 L 322.781676 -57.515039 C 322.781676 -63.389478 318.094623 -68.139025 312.220184 -68.139025 L 291.034708 -68.139025 L 291.034708 -78.700516 C 291.034708 -84.574955 286.347655 -89.262007 280.473216 -89.262007 Z M 269.849231 -89.262007 " transform="matrix(0.062506,0,0,0.062506,0,13.438783)"/>
</g>
</svg>

<svg xmlns="http://www.w3.org/2000/svg" width="32pt" height="32pt" viewBox="0 0 32 32"><defs><radialGradient id="a" gradientUnits="userSpaceOnUse" cx="450.909" cy="189.579" fx="450.909" fy="189.579" r="21.167" gradientTransform="matrix(0 -.07813 -.14064 0 44.523 63.595)"><stop offset="0" stop-opacity=".314"/><stop offset=".222" stop-opacity=".275"/><stop offset="1" stop-opacity="0"/></radialGradient><radialGradient id="b" gradientUnits="userSpaceOnUse" cx="450.909" cy="189.579" fx="450.909" fy="189.579" r="21.167" gradientTransform="matrix(0 .07813 .14064 0 -12.77 -7.527)"><stop offset="0" stop-opacity=".314"/><stop offset=".222" stop-opacity=".275"/><stop offset="1" stop-opacity="0"/></radialGradient><radialGradient id="c" gradientUnits="userSpaceOnUse" cx="450.909" cy="189.579" fx="450.909" fy="189.579" r="21.167" gradientTransform="matrix(0 -.07813 .14064 0 -12.77 63.595)"><stop offset="0" stop-opacity=".314"/><stop offset=".222" stop-opacity=".275"/><stop offset="1" stop-opacity="0"/></radialGradient><radialGradient id="d" gradientUnits="userSpaceOnUse" cx="450.909" cy="189.579" fx="450.909" fy="189.579" r="21.167" gradientTransform="matrix(0 .07813 -.14064 0 44.523 -7.527)"><stop offset="0" stop-opacity=".314"/><stop offset=".222" stop-opacity=".275"/><stop offset="1" stop-opacity="0"/></radialGradient><linearGradient id="e" gradientUnits="userSpaceOnUse" x1="255.323" y1="233.5" x2="255.323" y2="254.667" gradientTransform="matrix(.01336 0 0 .0625 12.465 13.439)"><stop offset="0" stop-opacity=".275"/><stop offset="1" stop-opacity="0"/></linearGradient><linearGradient id="f" gradientUnits="userSpaceOnUse" x1="254" y1="-168.667" x2="254" y2="233.5"><stop offset="0" stop-color="#66bb6a"/><stop offset="1" stop-color="#4caf50"/></linearGradient><linearGradient id="g" gradientUnits="userSpaceOnUse" x1="195.792" y1=".667" x2="195.792" y2="148.833" gradientTransform="translate(5.292 5.292)"><stop offset="0" stop-color="#e0e0e0"/><stop offset="1" stop-color="#eee"/></linearGradient><linearGradient id="h" gradientUnits="userSpaceOnUse" x1="280.458" y1="-94.583" x2="280.458" y2="74.75" gradientTransform="translate(-5.292 5.292)"><stop offset="0" stop-color="#e0e0e0"/><stop offset="1" stop-color="#eee"/></linearGradient></defs><path d="M18.191 28.035h2.649v-1.324H18.19zm0 0" fill="url(#a)"/><path d="M13.563 28.035h-2.649v1.32h2.649zm0 0" fill="url(#b)"/><path d="M13.563 28.035h-2.649v-1.324h2.649zm0 0" fill="url(#c)"/><path d="M18.191 28.035h2.649v1.32H18.19zm0 0" fill="url(#d)"/><path d="M13.563 27.703h4.628v1.652h-4.628zm0 0" fill="url(#e)"/><path d="M253.976-168.692c111.052 0 201.106 90.054 201.106 201.106 0 111.052-90.054 201.106-201.106 201.106-111.052 0-201.044-90.054-201.044-201.106 0-111.052 89.992-201.106 201.044-201.106zm0 0" transform="matrix(.0625 0 0 .0625 0 13.439)" fill="url(#f)" stroke-width="3" stroke-linecap="round" stroke="#333"/><path d="M15.875 28.035a12.54 12.54 0 0 1-12.566-12.57v-.121a12.542 12.542 0 0 0 12.566 12.445 12.545 12.545 0 0 0 12.57-12.445v.12c0 6.966-5.605 12.571-12.57 12.571zm0 0" fill-opacity=".196"/><path d="M15.875 2.895A12.54 12.54 0 0 0 3.309 15.59 12.543 12.543 0 0 1 15.875 3.14a12.546 12.546 0 0 1 12.57 12.45v-.125c0-6.965-5.605-12.57-12.57-12.57zm0 0" fill="#fff" fill-opacity=".392"/><path d="M15.875 2.8a12.638 12.638 0 0 0-12.66 12.665 12.638 12.638 0 0 0 12.66 12.664 12.64 12.64 0 0 0 12.664-12.664A12.64 12.64 0 0 0 15.875 2.8zm0 .188a12.447 12.447 0 0 1 12.477 12.477A12.447 12.447 0 0 1 15.875 27.94 12.446 12.446 0 0 1 3.402 15.465 12.446 12.446 0 0 1 15.875 2.988zm0 0" fill="#212121"/><path d="M174.608 5.979c-17.56 0-31.747 14.124-31.747 31.747v10.561c0 17.624 14.187 31.747 31.747 31.747h42.371v63.494c0 5.875 4.5 10.624 10.062 10.624h11.561c5.625 0 10.124-4.75 10.124-10.624V37.726c0-17.623-14.186-31.747-31.747-31.747zm0 0" transform="matrix(.0625 0 0 .0625 0 13.439)" fill="url(#g)" stroke-width="3" stroke-linecap="square" stroke-linejoin="bevel" stroke="#212121"/><path d="M269.85-89.262c-5.813 0-10.562 4.687-10.562 10.561v10.562h-21.186c-5.812 0-10.561 4.75-10.561 10.624v10.561c0 5.875 4.75 10.562 10.561 10.562h21.186v84.68c0 17.623 14.186 31.746 31.747 31.746h63.494c5.874 0 10.624-4.687 10.624-10.561V58.849c0-5.812-4.75-10.562-10.624-10.562h-52.933c-5.812 0-10.561-4.687-10.561-10.561v-74.118h21.185a10.509 10.509 0 0 0 10.562-10.562v-10.561c0-5.874-4.687-10.624-10.562-10.624h-21.185v-10.562a10.509 10.509 0 0 0-10.562-10.561zm0 0" transform="matrix(.0625 0 0 .0625 0 13.439)" fill="url(#h)" stroke-width="3" stroke-linecap="square" stroke-linejoin="bevel" stroke="#212121"/></svg>
